contributed-vectors/lazada.svg

<svg xmlns="http://www.w3.org/2000/svg" xml:space="preserve" style="fill-rule:evenodd;clip-rule:evenodd;stroke-linejoin:round;stroke-miterlimit:2" viewBox="0 0 192 192"><g transform="translate(9 24.551)"><path d="M171.625 22.999a4.998 4.998 0 0 1 2.368 4.263l-.138 58.967a4.999 4.999 0 0 1-2.36 4.234L89.64 141.358a4.996 4.996 0 0 1-5.28 0L2.505 90.463a4.999 4.999 0 0 1-2.36-4.234L.006 27.262a5 5 0 0 1 2.369-4.263L37.058 1.534a5 5 0 0 1 5.034-.134l30.015 16.442a31.002 31.002 0 0 0 29.786 0L131.908 1.4a4.999 4.999 0 0 1 5.033.134l34.684 21.465Z" style="fill:url(#a)"/><clipPath id="b"><path d="M171.625 22.999a4.998 4.998 0 0 1 2.368 4.263l-.138 58.967a4.999 4.999 0 0 1-2.36 4.234L89.64 141.358a4.996 4.996 0 0 1-5.28 0L2.505 90.463a4.999 4.999 0 0 1-2.36-4.234L.006 27.262a5 5 0 0 1 2.369-4.263L37.058 1.534a5 5 0 0 1 5.034-.134l30.015 16.442a31.002 31.002 0 0 0 29.786 0L131.908 1.4a4.999 4.999 0 0 1 5.033.134l34.684 21.465Z"/></clipPath><g clip-path="url(#b)"><path d="m0 24 87 48v71L0 95V24Z" style="fill-opacity:.05"/><path d="M174 24 87 72v71l87-48V24Z" style="fill-opacity:.15"/></g></g><defs><linearGradient id="a" x1="0" x2="1" y1="0" y2="0" gradientTransform="translate(.006 120.4) scale(173.987)" gradientUnits="userSpaceOnUse"><stop offset="0" style="stop-color:#f8c18c;stop-opacity:1"/><stop offset="1" style="stop-color:#ffb0ac;stop-opacity:1"/></linearGradient></defs></svg>

<?xml version="1.0" encoding="UTF-8" standalone="no"?>
<!DOCTYPE svg PUBLIC "-//W3C//DTD SVG 1.1//EN" "http://www.w3.org/Graphics/SVG/1.1/DTD/svg11.dtd">
<svg width="100%" height="100%" viewBox="0 0 192 192" version="1.1" xmlns="http://www.w3.org/2000/svg" xmlns:xlink="http://www.w3.org/1999/xlink" xml:space="preserve" xmlns:serif="http://www.serif.com/" style="fill-rule:evenodd;clip-rule:evenodd;stroke-linejoin:round;stroke-miterlimit:2;">
    <g transform="matrix(1,0,0,1,9.00032,24.5512)">
        <path d="M171.625,22.999C173.101,23.912 173.997,25.526 173.993,27.262L173.855,86.229C173.851,87.953 172.959,89.553 171.495,90.463L89.64,141.358C88.023,142.364 85.976,142.364 84.36,141.358L2.505,90.463C1.041,89.553 0.149,87.953 0.145,86.229L0.006,27.262C0.002,25.526 0.899,23.912 2.375,22.999L37.058,1.534C38.59,0.586 40.512,0.535 42.092,1.4L72.107,17.842C81.385,22.924 92.615,22.924 101.893,17.842L131.908,1.4C133.487,0.535 135.41,0.586 136.941,1.534L171.625,22.999Z" style="fill:url(#_Linear1);"/>
        <clipPath id="_clip2">
            <path d="M171.625,22.999C173.101,23.912 173.997,25.526 173.993,27.262L173.855,86.229C173.851,87.953 172.959,89.553 171.495,90.463L89.64,141.358C88.023,142.364 85.976,142.364 84.36,141.358L2.505,90.463C1.041,89.553 0.149,87.953 0.145,86.229L0.006,27.262C0.002,25.526 0.899,23.912 2.375,22.999L37.058,1.534C38.59,0.586 40.512,0.535 42.092,1.4L72.107,17.842C81.385,22.924 92.615,22.924 101.893,17.842L131.908,1.4C133.487,0.535 135.41,0.586 136.941,1.534L171.625,22.999Z"/>
        </clipPath>
        <g clip-path="url(#_clip2)">
            <g>
                <path d="M0,24L87,72L87,143L0,95L0,24Z" style="fill-opacity:0.05;"/>
                <path d="M174,24L87,72L87,143L174,95L174,24Z" style="fill-opacity:0.15;"/>
            </g>
        </g>
    </g>
    <defs>
        <linearGradient id="_Linear1" x1="0" y1="0" x2="1" y2="0" gradientUnits="userSpaceOnUse" gradientTransform="matrix(173.987,0,0,173.987,0.00634766,120.4)"><stop offset="0" style="stop-color:rgb(248,193,140);stop-opacity:1"/><stop offset="1" style="stop-color:rgb(255,176,172);stop-opacity:1"/></linearGradient>
    </defs>
</svg>
